outputs/icons/navigation/help_round.svg

<svg xmlns="http://www.w3.org/2000/svg" width="1200" height="1200" fill="none"><g clip-path="url(#a)"><path fill="#000" d="M600 100c-276 0-500 224-500 500s224 500 500 500 500-224 500-500-224-500-500-500m50 850H550V850h100zm103.5-387.5-45 46c-25 25.5-43 48.5-52 84.5-4 16-6.5 34-6.5 57H550v-25c0-23 4-45 11-65.5 10-29 26.5-55 47.5-76l62-63c23-22 34-55 27.5-90-6.5-36-34.5-66.5-69.5-76.5-55.5-15.5-107 16-123.5 63.5-6 18.5-21.5 32.5-41 32.5h-15c-29 0-49-28-41-56 21.5-73.5 84-129.5 161.5-141.5 76-12 148.5 27.5 193.5 90 59 81.5 41.5 169-9.5 220"/></g><defs><clipPath id="a"><path fill="#fff" d="M0 0h1200v1200H0z"/></clipPath></defs></svg>

<svg width="1200" height="1200" viewBox="0 0 1200 1200" fill="none" xmlns="http://www.w3.org/2000/svg"><g clip-path="url(#clip0_223_1893)"><path d="M600 100C324 100 100 324 100 600C100 876 324 1100 600 1100C876 1100 1100 876 1100 600C1100 324 876 100 600 100ZM650 950H550V850H650V950ZM753.5 562.5L708.5 608.5C683.5 634 665.5 657 656.5 693C652.5 709 650 727 650 750H550V725C550 702 554 680 561 659.5C571 630.5 587.5 604.5 608.5 583.5L670.5 520.5C693.5 498.5 704.5 465.5 698 430.5C691.5 394.5 663.5 364 628.5 354C573 338.5 521.5 370 505 417.5C499 436 483.5 450 464 450H449C420 450 400 422 408 394C429.5 320.5 492 264.5 569.5 252.5C645.5 240.5 718 280 763 342.5C822 424 804.5 511.5 753.5 562.5Z" fill="black"/></g><defs><clipPath id="clip0_223_1893"><path width="24" fill="white" d="M0 0H1200V1200H0V0z"/></clipPath></defs></svg>
